svg/OSM-icons/shop #ac39ac °ffffff !label=enshops,deLäden/29025;shop=chemist;!name=;feature_group=womens_fav_places;[shop];!label=enchemist,deDrogerie.svg

<svg xmlns="http://www.w3.org/2000/svg" viewBox="0 0 580 580" enable-background="new 0 0 580 580"><path fill="#111" stroke="#eee" stroke-width="3.408" d="m66.28 1.768c-41.34 0-64.57 21.371-64.57 65.04v450.12c0 40.844 20.895 62.23 62.19 62.23h452.02c41.31 0 62.23-20.315 62.23-62.23v-450.12c0-42.602-20.923-65.04-63.52-65.04-.003 0-448.5-.143-448.35 0z"/><g fill="#fff"><path d="m194.16 60.51c0-7.483-6.067-13.55-13.55-13.55h-77.07c-7.483 0-13.55 6.07-13.55 13.55v25.406c0 7.483 6.07 13.55 13.55 13.55h77.07c7.483 0 13.55-6.067 13.55-13.55v-25.406"/><path d="m210.67 111.32h-137.19c-13.564 0-24.56 10.996-24.56 24.559v170.22c0 13.563 10.996 24.559 24.56 24.559h137.19c13.563 0 24.56-10.995 24.56-24.559v-170.22c-.0001-13.564-10.997-24.56-24.56-24.56m2.117 109.67h-141.43v-58.858h141.43v58.858"/><path d="m412.99 535.54c-2.079 0-4.136-.352-6.114-1.044l-157.62-55.18c-9.627-3.37-14.718-13.945-11.349-23.573l102.09-291.65c2.594-7.412 9.61-12.392 17.46-12.392 2.079 0 4.136.351 6.113 1.043l157.62 55.18c9.627 3.37 14.719 13.945 11.349 23.573l-102.09 291.65c-2.595 7.412-9.611 12.392-17.459 12.392m-55.53-378.83c-5.728 0-10.848 3.635-12.741 9.04l-102.09 291.65c-2.459 7.02 1.256 14.742 8.282 17.202l157.62 55.17c1.445.506 2.946.763 4.462.763 5.727 0 10.847-3.635 12.74-9.04l102.09-291.65c2.459-7.03-1.257-14.743-8.282-17.202l-157.62-55.18c-1.446-.506-2.947-.763-4.461-.763"/><circle cx="370.77" cy="212.37" r="19.5"/><circle cx="424.57" cy="231.21" r="19.5"/><circle cx="478.37" cy="250.04" r="19.5"/><circle cx="351.1" cy="268.58" r="19.5"/><circle cx="404.9" cy="287.41" r="19.5"/><circle cx="458.7" cy="306.25" r="19.5"/><circle cx="331.42" cy="324.79" r="19.5"/><circle cx="385.22" cy="343.62" r="19.5"/><circle cx="439.02" cy="362.45" r="19.5"/><circle cx="311.75" cy="381" r="19.5"/><circle cx="365.55" cy="399.83" r="19.5"/><circle cx="419.34" cy="418.67" r="19.5"/><circle cx="292.07" cy="437.21" r="19.5"/><circle cx="345.87" cy="456.04" r="19.5"/><circle cx="399.67" cy="474.87" r="19.5"/></g></svg>

<?xml version="1.0" encoding="utf-8"?>
<!-- Generator: Adobe Illustrator 15.0.0, SVG Export Plug-In . SVG Version: 6.00 Build 0)  -->
<!DOCTYPE svg PUBLIC "-//W3C//DTD SVG 1.1//EN" "http://www.w3.org/Graphics/SVG/1.1/DTD/svg11.dtd">
<svg version="1.1" xmlns="http://www.w3.org/2000/svg" xmlns:xlink="http://www.w3.org/1999/xlink" x="0px" y="0px" width="580px"
	 height="580px" viewBox="0 0 580 580" enable-background="new 0 0 580 580" xml:space="preserve">
<g id="Layer_1">
	<g id="Layer_2">
		<g id="g1327">
			<path id="path1329" fill="#111111" stroke="#EEEEEE" stroke-width="3.408" d="M66.275,1.768
				c-41.335,0-64.571,21.371-64.571,65.036v450.123c0,40.844,20.895,62.229,62.192,62.229h452.024
				c41.307,0,62.229-20.315,62.229-62.229V66.804c0-42.602-20.923-65.036-63.521-65.036C514.625,1.768,66.133,1.625,66.275,1.768z"
				/>
		</g>
	</g>
</g>
<g id="Layer_2_1_">
	<g>
		<g>
			<g>
				<path fill="#FFFFFF" d="M194.156,60.51c0-7.483-6.067-13.55-13.55-13.55h-77.066c-7.483,0-13.55,6.066-13.55,13.55v25.406
					c0,7.483,6.066,13.55,13.55,13.55h77.066c7.483,0,13.55-6.067,13.55-13.55V60.51z"/>
			</g>
			<g>
				<path fill="#FFFFFF" d="M210.671,111.323H73.477c-13.564,0-24.56,10.996-24.56,24.559v170.223
					c0,13.563,10.996,24.559,24.56,24.559h137.194c13.563,0,24.56-10.995,24.56-24.559V135.883
					C235.23,122.319,224.234,111.323,210.671,111.323z M212.788,220.994H71.36v-58.858h141.428V220.994z"/>
			</g>
		</g>
		<g>
			<g>
				<path fill="#FFFFFF" d="M412.989,535.539c-2.079,0-4.136-0.352-6.114-1.044L249.253,479.32
					c-9.627-3.37-14.718-13.945-11.349-23.573l102.09-291.647c2.594-7.412,9.61-12.392,17.46-12.392
					c2.079,0,4.136,0.351,6.113,1.043l157.622,55.175c9.627,3.37,14.719,13.945,11.349,23.573L430.448,523.147
					C427.853,530.559,420.837,535.539,412.989,535.539z M357.455,156.707c-5.728,0-10.848,3.635-12.741,9.044l-102.09,291.648
					c-2.459,7.025,1.256,14.742,8.282,17.202l157.622,55.175c1.445,0.506,2.946,0.763,4.462,0.763c5.727,0,10.847-3.635,12.74-9.044
					L527.82,229.847c2.459-7.026-1.257-14.743-8.282-17.202L361.916,157.47C360.47,156.964,358.969,156.707,357.455,156.707z"/>
			</g>
			<g>
				<g>
					<g>
						<circle fill="#FFFFFF" cx="370.774" cy="212.373" r="19.5"/>
					</g>
					<g>
						<circle fill="#FFFFFF" cx="424.573" cy="231.205" r="19.5"/>
					</g>
					<g>
						<circle fill="#FFFFFF" cx="478.372" cy="250.038" r="19.5"/>
					</g>
				</g>
				<g>
					<g>
						<circle fill="#FFFFFF" cx="351.098" cy="268.582" r="19.5"/>
					</g>
					<g>
						<circle fill="#FFFFFF" cx="404.897" cy="287.414" r="19.5"/>
					</g>
					<g>
						<circle fill="#FFFFFF" cx="458.697" cy="306.246" r="19.5"/>
					</g>
				</g>
				<g>
					<g>
						<circle fill="#FFFFFF" cx="331.422" cy="324.791" r="19.5"/>
					</g>
					<g>
						<circle fill="#FFFFFF" cx="385.221" cy="343.623" r="19.5"/>
					</g>
					<g>
						<circle fill="#FFFFFF" cx="439.021" cy="362.455" r="19.5"/>
					</g>
				</g>
				<g>
					<g>
						<circle fill="#FFFFFF" cx="311.746" cy="381.001" r="19.5"/>
					</g>
					<g>
						<circle fill="#FFFFFF" cx="365.545" cy="399.833" r="19.5"/>
					</g>
					<g>
						<circle fill="#FFFFFF" cx="419.344" cy="418.665" r="19.5"/>
					</g>
				</g>
				<g>
					<g>
						<circle fill="#FFFFFF" cx="292.071" cy="437.21" r="19.5"/>
					</g>
					<g>
						<circle fill="#FFFFFF" cx="345.869" cy="456.042" r="19.5"/>
					</g>
					<g>
						<circle fill="#FFFFFF" cx="399.669" cy="474.874" r="19.5"/>
					</g>
				</g>
			</g>
		</g>
	</g>
</g>
</svg>
